X:169
T:Van Diemen's Land
M:C|
L:1/8
Q:1/4=100
K:CMix
D2|\
D2E2 F2G2|A2G2 c2dc|A2GF D2D2|D6 D2|
D2E2 F2G2|A2G2 c2dc|A2GF D2D2|D6 F2|
B2B2 FFF2|G2 c4  dc|B2G2 F2DC|B,6 G,2|
C2C2_E2F2|G2F2 B2dc|G2F_E C2C2|C6 ||
